X:1852
T:Polska efter en visa
R:Polska
S:Efter Erik Ljung
O:Delsbo, Hälsingland
B:SMUS
Z:Håkan Lidén, 2010-06-03
N: Sjöngs av Korpral Ljung från Järfsö, bodde på Järnvallen, Delsbo socken
N: Finns på [[http://www.smus.se/earkiv/fmk/browselarge.php?lang=sw&katalogid=Hs+17&bildnr=00017|SMUS]]
M:3/4
L:1/8
K:Dm
|: A | d^c de f/e/f/a/ | ge d3 ^f | ^fe df af | d>^f e3 :|[K:D] 
|: g | fe fa gf | ed cd Bc | Ac dg fa | ge d3 :|]
(:musicend:)
Först en version för den skotska säckpipan. Det är ovanligt många gracenotes jämfört med de flesta inspelningarna, men det är så den låter i The Thistle Pipe Bands version från 1991. De fasta förtecknen är med för den som inte blåser skotsk pipa men ändå vill försöka sig på de här noterna.

(:music:)
